public/Images/moustache.svg

<svg width="79" height="53" viewBox="0 0 79 53" fill="none" xmlns="http://www.w3.org/2000/svg">
<path d="M0.894531 6.12379C0.894531 6.12379 16.2761 6.1238 22.354 2.34532C23.0213 1.90395 23.7943 1.64725 24.594 1.60152C29.0218 1.44533 42.559 0.753599 38.9824 6.06429C37.489 8.29568 30.866 5.0676 18.867 10.7725C6.86793 16.4774 0.894531 6.12379 0.894531 6.12379Z" fill="#754034"/>
<path d="M65.1069 4.63611C65.1069 4.63611 44.999 -4.66133 41.4075 5.49891C41.3799 5.56899 41.3697 5.64467 41.3776 5.71954C41.3856 5.79441 41.4116 5.86627 41.4533 5.92903C41.4951 5.99179 41.5514 6.04359 41.6175 6.08007C41.6836 6.11655 41.7576 6.1366 41.8331 6.13856C49.3961 6.47655 56.8388 8.14875 63.8152 11.0774C64.3603 11.3079 69.1913 11.3079 69.587 11.3079C71.827 11.3079 76.7924 10.7873 78.353 7.45509C78.3833 7.38701 78.3965 7.31262 78.3916 7.23832C78.3868 7.16402 78.3639 7.09199 78.3251 7.0284C78.2862 6.96481 78.2324 6.91155 78.1683 6.87316C78.1043 6.83478 78.0318 6.81243 77.9572 6.808C75.4484 6.66668 68.0936 6.87493 65.1069 4.63611Z" fill="#754034"/>
<path d="M39.7224 29.9252C39.7224 29.9252 39.7224 37.3631 30.0156 36.6193C30.0156 36.6193 37.4824 51.4952 43.4558 52.239C43.4558 52.239 42.7091 48.52 51.6692 37.3631C50.0754 37.052 48.6281 36.2288 47.5491 35.0196C46.4701 33.8105 45.8191 32.2821 45.6958 30.669L39.7224 29.9252Z" fill="#754034"/>
</svg>

<svg xmlns="http://www.w3.org/2000/svg" width="79" height="53" fill="#754034"><path d="M.895 6.124s15.382 0 21.46-3.778a4.53 4.53 0 0 1 2.24-.744c4.428-.156 17.965-.848 14.388 4.463-1.493 2.23-8.116-.997-20.115 4.708S.895 6.124.895 6.124zm64.212-1.488S45-4.66 41.408 5.5a.47.47 0 0 0 .426.64 64.2 64.2 0 0 1 21.982 4.939c.545.23 5.376.23 5.772.23 2.24 0 7.205-.52 8.766-3.853a.46.46 0 0 0-.185-.582c-.064-.038-.136-.06-.2-.065-2.5-.14-9.864.067-12.85-2.172zm-25.385 25.29s0 7.438-9.707 6.694c0 0 7.467 14.876 13.44 15.62 0 0-.747-3.72 8.213-14.876a7.43 7.43 0 0 1-4.12-2.344 7.38 7.38 0 0 1-1.853-4.351l-5.973-.744z"/></svg>
